X: 4
T: R\'ugu\vo
T: If [16-bar form]
C: melody: T\'ai Zh\`ao-M\'ei
%T: Rúguǒ
%T: 如果
%C: melody: Tái Zhào-Méi (邰肇玫)
%C: lyrics: Shī Bì-Wú (施碧梧)
D: Vienna Teng
D: T\'ai Zh\`ao-M\'ei (邰肇玫)
N: This is a 16-bar version, arranged for 16- and 32-bar dances. The song
N: stretches the last 2 bars to 4, plus assorted interludes between verses.
M: C
L: 1/8
K: D
%%staffsep 40
[|"D"FA3- A2FA | "G"Bd3- d2z2 | "D"AA2B     A2F2   | "A7"E6 z2 \
| "D"FA3- A2FA | "G"Bd3  B2zB | "D"A3F  "A7"E3D    |  "D"D6 z2 ||
||"D"d3d  d2e2 |    f4   A4   | "G"Bd2d "E7"d2(cd) | "A7"e6 z2 \
| "D"ff2g f2e2 | "G"zd2e d2B2 | "D"A3A  "A7"fe(dc) |  "D"d6 z2 |]
%
%W:如果你是朝露    我愿是那小草
%W:如果你是那片云  我愿是那小雨
%W:终日与你相偎依  于是我将知道
%W:当我伴着你  守着你时  会是多么绮丽
%W:
%W:如果你是那海    我愿是那沙滩
%W:如果你是那阵烟  我愿是那轻风
%W:永远与你缠绵    于是我将知道
%W:当我伴着你  守着你时  会是多么甜蜜


%%sep 5 1 500

